X: 573
T: Dilkeşhâveran Seyir
C: Erol Bingöl
O: Turkey
F: http://compmusic.upf.edu/node/140
N: dilkeshaveran--seyir--duyek--1--erol_bingol
N: makam= dilkeshaveran
N: form= seyir
N: usul= duyek = 8/4
M: 8/4
L: 1/16
K: C _2/4B ^3/4f  
Q: 1/4=120
%%MIDI tuningsystem comma53
d2 e4 d2 e2 fe e4  | d2 e2 c2 d2 cB BA A4  | \
w:   |   | 
f2 g4 f2 f2 e2 g2 fe  | 
w:   | 
e6 d2 c2 d2 e4  | e2 f2 g2 a2 g2 =f2 e2 d2  | \
w:   |   | 
c2 d4 e2 c3B A4  | A2 B2 c2 B2 A4 G4  | 
w:   |   | 
A2 G2 ^F2 ^E2 F8  | |


